packages/ffe-icons/icons/filled/sm/library_add.svg

<svg xmlns="http://www.w3.org/2000/svg" height="20" viewBox="0 -960 960 960" width="20"><path d="M541.802-394.001q10.966 0 18.581-7.475 7.616-7.474 7.616-18.524v-106.001h106q11.05 0 18.525-7.418 7.475-7.418 7.475-18.384 0-10.966-7.475-18.581t-18.525-7.615h-106V-684q0-11.05-7.419-18.524-7.418-7.475-18.384-7.475-10.966 0-18.581 7.475Q516-695.05 516-684v106.001H409.999q-11.049 0-18.524 7.418Q384-563.163 384-552.197q0 10.966 7.475 18.581t18.524 7.615H516V-420q0 11.05 7.418 18.524 7.418 7.475 18.384 7.475Zm-227.494 134q-27.008 0-45.657-18.65-18.65-18.65-18.65-45.658v-455.382q0-27.008 18.65-45.658 18.649-18.65 45.657-18.65h455.383q27.007 0 45.657 18.65 18.65 18.65 18.65 45.658v455.382q0 27.008-18.65 45.658-18.65 18.65-45.657 18.65H314.308ZM190.309-136.003q-27.007 0-45.657-18.65-18.65-18.65-18.65-45.657v-481.382q0-11.05 7.418-18.525 7.418-7.474 18.384-7.474 10.966 0 18.582 7.474 7.615 7.475 7.615 18.525v481.382q0 4.616 3.846 8.462 3.847 3.847 8.462 3.847h481.382q11.05 0 18.525 7.418 7.475 7.418 7.475 18.384 0 10.966-7.475 18.581t-18.525 7.615H190.309Z"/></svg>

<svg xmlns="http://www.w3.org/2000/svg" height="20" viewBox="0 -960 960 960" width="20"><path d="M541.8-394q10.97 0 18.58-7.48Q568-408.95 568-420v-106h106q11.05 0 18.52-7.42 7.48-7.42 7.48-18.38 0-10.97-7.48-18.58Q685.05-578 674-578H568v-106q0-11.05-7.42-18.52-7.42-7.48-18.38-7.48-10.97 0-18.58 7.48Q516-695.05 516-684v106H410q-11.05 0-18.53 7.42-7.47 7.42-7.47 18.38 0 10.97 7.47 18.58Q398.95-526 410-526h106v106q0 11.05 7.42 18.52 7.42 7.48 18.38 7.48ZM314.31-260q-27.01 0-45.66-18.65Q250-297.3 250-324.31v-455.38q0-27.01 18.65-45.66Q287.3-844 314.31-844h455.38q27.01 0 45.66 18.65Q834-806.7 834-779.69v455.38q0 27.01-18.65 45.66Q796.7-260 769.69-260H314.31Zm-124 124q-27.01 0-45.66-18.65Q126-173.3 126-200.31v-481.38q0-11.05 7.42-18.53 7.42-7.47 18.38-7.47 10.97 0 18.59 7.47 7.61 7.48 7.61 18.53v481.38q0 4.62 3.85 8.46 3.84 3.85 8.46 3.85h481.38q11.05 0 18.53 7.42 7.47 7.41 7.47 18.38 0 10.97-7.47 18.58-7.48 7.62-18.53 7.62H190.31Z"/></svg>
